X:2357
T:Illiam y Cain 
C:Mrs Bridson, Glen Rushen, 1923 
C:Traditional
O:Isle of Man
Z:Kiaull Vannin 357 
L:1/4
M:6/4 
Q:40 
K:G 
GB d|g3 f/e/ dc|B3z G G|g2e d3|c de (d2A)|AB A GF G|AB c d2z/A/|GG G|| 

